glitch-avatars-svg/base_avatar/Avatar.fla/placeholder symbols 2/Avatar_sideLegUpperOffside2.svg

<?xml version="1.0" encoding="UTF-8" standalone="no"?>
<!-- Generator: flash2svg, http://dissentgraphics.com/tools/flash2svg -->

<svg
   xmlns:dc="http://purl.org/dc/elements/1.1/"
   xmlns:cc="http://creativecommons.org/ns#"
   xmlns:rdf="http://www.w3.org/1999/02/22-rdf-syntax-ns#"
   xmlns:svg="http://www.w3.org/2000/svg"
   xmlns="http://www.w3.org/2000/svg"
   xmlns:sodipodi="http://sodipodi.sourceforge.net/DTD/sodipodi-0.dtd"
   xmlns:inkscape="http://www.inkscape.org/namespaces/inkscape"
   id="Avatar"
   image-rendering="auto"
   version="1.1"
   x="0px"
   y="0px"
   width="9.4499998"
   height="15.205492"
   viewBox="0 0 9.4499998 15.205492"
   inkscape:version="0.48.4 r9939"
   sodipodi:docname="Avatar_sideLegUpperOffside2.svg">
  <metadata
     id="metadata3369">
    <rdf:RDF>
      <cc:Work
         rdf:about="">
        <dc:format>image/svg+xml</dc:format>
        <dc:type
           rdf:resource="http://purl.org/dc/dcmitype/StillImage" />
      </cc:Work>
    </rdf:RDF>
  </metadata>
  <sodipodi:namedview
     pagecolor="#ffffff"
     bordercolor="#666666"
     borderopacity="1"
     objecttolerance="10"
     gridtolerance="10"
     guidetolerance="10"
     inkscape:pageopacity="0"
     inkscape:pageshadow="2"
     inkscape:window-width="640"
     inkscape:window-height="480"
     id="namedview3367"
     showgrid="false"
     fit-margin-top="0"
     fit-margin-left="0"
     fit-margin-right="0"
     fit-margin-bottom="0"
     inkscape:zoom="1.8730159"
     inkscape:cx="38.8"
     inkscape:cy="-48.85"
     inkscape:window-x="0"
     inkscape:window-y="0"
     inkscape:window-maximized="0"
     inkscape:current-layer="Avatar" />
  <defs
     id="defs3346" />
  <g
     id="sideLegUpperOffside3"
     overflow="visible"
     style="overflow:visible"
     transform="translate(4.8,1.0554922)">
    <g
       id="sideLegUpperOffside2_4">
      <g
         id="element2">
        <path
           id="path6"
           d="M 3.25,2.4 Q 3.05,1.15 1.95,0.3 C 0.9,-0.5 -0.25,-0.75 -1.55,-0.45 -1.8,-0.4 -2,-0.3 -2.2,-0.2 c -0.05,0.05 -0.15,0.05 -0.2,0.1 -0.15,0.1 -0.3,0.15 -0.45,0.2 -0.75,1.05 -1.1,2.2 -1.1,3.45 0,0.4 0,0.8 0,1.15 0,0.35 -0.1,0.65 -0.25,0.9 0,0.25 0,0.5 0,0.75 0.05,1.55 0.15,3.1 0.3,4.65 0,0.1 0.05,0.2 0.1,0.3 0.25,0.45 0.6,0.9 0.95,1.3 0.05,0.15 0.15,0.3 0.25,0.5 0.2,0.1 0.4,0.2 0.6,0.3 -0.05,-0.05 -0.05,-0.05 -0.1,-0.05 0.45,0.25 0.9,0.45 1.45,0.5 C 0.1,14 0.9,13.95 1.75,13.7 1.9,13.6 2.05,13.5 2.2,13.45 2.55,13.05 2.75,12.6 2.9,12.15 3.45,11.2 3.85,10.15 4.1,9.1 L 4.075,9.075 4,9.05 C 3.95,8.2 4,7.35 4.05,6.5 4.1,5.8 4.05,5.1 4,4.35 3.75,3.7 3.55,3 3.35,2.3 3.3,2.35 3.3,2.35 3.25,2.4 z"
           inkscape:connector-curvature="0"
           style="fill:#ffffcc" />
        <path
           id="path7"
           d="m 1.95,0.3 q 1.1,0.85 1.3,2.1 C 3.3,2.35 3.3,2.35 3.35,2.3 3.55,3 3.75,3.7 4,4.35 4.05,5.1 4.1,5.8 4.05,6.5 4,7.35 3.95,8.2 4,9.05 4.35,8.15 4.5,7.2 4.5,6.25 4.5,4.6 4.15,3.05 3.4,1.7 3.35,1.55 3.25,1.35 3.15,1.2 2.7,0.45 2.1,-0.2 1.25,-0.65 0.8,-0.8 0.35,-0.9 -0.1,-0.95 -0.65,-1 -1.15,-0.9 -1.6,-0.7 L -1.625,-0.725 -1.6,-0.75 c -0.1,0 -0.2,0.05 -0.35,0.1 -0.35,0.25 -0.75,0.45 -1.15,0.6 -0.35,0.45 -0.65,0.95 -0.8,1.5 -0.25,0.4 -0.35,0.85 -0.4,1.4 -0.2,1.6 -0.3,3.2 -0.35,4.85 0.05,-0.15 0.15,-0.25 0.2,-0.35 -0.05,0.35 -0.1,0.75 -0.15,1.1 -0.3,2.05 0.35,3.6 2,4.65 C -2.7,12.9 -2.8,12.75 -2.85,12.6 -3.2,12.2 -3.55,11.75 -3.8,11.3 -3.85,11.2 -3.9,11.1 -3.9,11 -4.05,9.45 -4.15,7.9 -4.2,6.35 c 0,-0.25 0,-0.5 0,-0.75 0.15,-0.25 0.25,-0.55 0.25,-0.9 0,-0.35 0,-0.75 0,-1.15 0,-1.25 0.35,-2.4 1.1,-3.45 0.15,-0.05 0.3,-0.1 0.45,-0.2 0.05,-0.05 0.15,-0.05 0.2,-0.1 0.2,-0.1 0.4,-0.2 0.65,-0.25 1.3,-0.3 2.45,-0.05 3.5,0.75 z m 2.2,8.45 C 4.1,8.85 4.1,8.95 4.1,9.1 3.85,10.15 3.45,11.2 2.9,12.15 2.75,12.6 2.55,13.05 2.2,13.45 2.4,13.3 2.6,13.15 2.75,13 3.4,12.45 3.85,11.7 4.05,10.85 3.9,11.1 3.7,11.35 3.55,11.6 4.2,10.3 4.6,8.9 4.65,7.35 4.6,7.3 4.6,7.3 4.6,7.25 4.6,7.2 4.6,7.1 4.55,7.05 4.4,7.55 4.3,8.1 4.15,8.75 z"
           inkscape:connector-curvature="0"
           style="fill:#663300" />
      </g>
      <animate
         attributeName="display"
         begin="0s"
         repeatCount="indefinite"
         dur="0.167s"
         keyTimes="0;0.798;1"
         values="none;inline;none"
         id="animate3353" />
    </g>
    <g
       id="sideLegUpperOffside2_2">
      <g
         id="element1">
        <path
           id="path3"
           d="m 0.6,-0.85 q -0.25,0 -0.5,-0.05 c -0.35,-0.05 -0.75,-0.05 -1.15,0.05 0.25,-0.1 0.45,-0.15 0.7,-0.15 -0.8,-0.15 -1.5,0 -2.15,0.5 -0.35,0.3 -0.65,0.65 -0.9,1 -0.4,0.45 -0.65,1 -0.8,1.65 -0.2,1.25 -0.4,2.5 -0.55,3.8 -0.1,1.05 -0.05,2 0.15,2.9 l 0,0.025 0,0.025 c -0.05,0.95 0.2,1.9 0.7,2.75 0.4,0.65 0.85,1.15 1.4,1.5 C -2.7,12.9 -2.9,12.6 -3.05,12.3 -3.4,11.95 -3.65,11.5 -3.8,11.05 -4.1,9.9 -4.3,8.75 -4.35,7.6 l -0.025,0 0.025,0 c 0,-0.15 0,-0.25 0,-0.4 0,-0.7 0,-1.4 0,-2.05 C -4.4,3.9 -4.2,2.7 -3.8,1.65 c 0,0 0,0 0.05,-0.05 0.25,-0.35 0.55,-0.7 0.85,-1.1 0.35,-0.55 0.8,-0.9 1.35,-1.15 0.3,0.05 0.65,0.1 1.05,0.05 0.3,-0.05 0.6,0 0.95,0.15 C 1.8,0.1 2.8,1.05 3.4,2.35 3.55,3 3.65,3.6 3.8,4.2 c 0.25,1.35 0.35,2.75 0.3,4.1 0,-0.05 0,-0.05 0.05,-0.05 -0.05,0 -0.05,0 0,0.05 C 4.1,8.35 4.1,8.45 4.1,8.55 4.05,9.85 3.75,11 3.15,12.05 3.1,12.4 3.05,12.7 2.9,13.05 3.25,12.75 3.5,12.35 3.65,11.8 4.25,9.95 4.55,8.1 4.6,6.25 4.5,6.5 4.4,6.75 4.35,7 4.4,6.75 4.4,6.5 4.4,6.25 4.5,4.85 4.25,3.5 3.6,2.2 3.5,1.9 3.35,1.6 3.2,1.35 2.6,0.3 1.75,-0.4 0.6,-0.85 z"
           inkscape:connector-curvature="0"
           style="fill:#663300" />
        <path
           id="path4"
           d="M 3.8,4.2 C 3.65,3.6 3.55,3 3.4,2.35 2.8,1.05 1.8,0.1 0.45,-0.45 0.1,-0.6 -0.2,-0.65 -0.5,-0.6 c -0.4,0.05 -0.75,0 -1.05,-0.05 -0.55,0.25 -1,0.6 -1.35,1.15 -0.3,0.4 -0.6,0.75 -0.85,1.1 -0.05,0.05 -0.05,0.05 -0.05,0.05 -0.4,1.05 -0.6,2.25 -0.55,3.5 0,0.65 0,1.35 0,2.05 0,0.15 0,0.25 0,0.4 l -0.025,0 0.025,0 c 0.05,1.15 0.25,2.3 0.55,3.45 0.15,0.45 0.4,0.9 0.75,1.25 0.15,0.3 0.35,0.6 0.55,0.85 0.4,0.25 0.85,0.4 1.3,0.5 0.55,0.25 1.15,0.35 1.8,0.4 1.05,0.05 1.75,-0.25 2.2,-0.9 0,-0.05 0.05,-0.05 0.1,-0.1 0.15,-0.35 0.2,-0.65 0.25,-1 0.6,-1.05 0.9,-2.2 0.95,-3.5 0,-0.1 0,-0.2 0.05,-0.25 L 4.125,8.3 4.1,8.3 C 4.15,6.95 4.05,5.55 3.8,4.2 z"
           inkscape:connector-curvature="0"
           style="fill:#ffffcc" />
      </g>
      <animate
         attributeName="display"
         begin="0s"
         repeatCount="indefinite"
         dur="0.167s"
         keyTimes="0;0.399;0.798;1"
         values="none;inline;none;none"
         id="animate3359" />
    </g>
    <g
       id="sideLegUpperOffside2_0">
      <g
         id="element">
        <path
           id="path"
           d="m -0.35,-0.9 q -0.85,0 -1.55,0.2 c 0.05,0 0.15,0 0.2,0 -0.3,0.1 -0.55,0.25 -0.8,0.4 -0.25,0.2 -0.45,0.4 -0.65,0.65 -0.55,0.25 -0.9,0.7 -1.05,1.4 -0.25,0.95 -0.3,1.9 -0.25,2.8 C -4.5,4.8 -4.5,5.1 -4.55,5.45 -4.6,6 -4.65,6.6 -4.7,7.25 -4.75,8.7 -4.55,10.05 -4.05,11.3 -4,11.35 -4,11.4 -4,11.45 -4.15,11.2 -4.3,10.9 -4.45,10.6 c -0.1,0.3 0,0.65 0.3,1.05 0.75,0.9 1.6,1.55 2.6,2 C -1.8,13.5 -2.05,13.4 -2.3,13.25 -2.55,13 -2.75,12.8 -3,12.6 c 0,-0.05 0,-0.05 0,-0.1 0.05,-0.05 0.05,-0.05 0.05,-0.1 C -3.2,12.15 -3.4,11.9 -3.45,11.6 -3.6,11.4 -3.7,11.2 -3.85,10.95 -4,10.75 -4.05,10.55 -4.05,10.3 -4.2,8.8 -4.25,7.3 -4.25,5.8 -4.1,5.2 -4.05,4.6 -4.1,4 c -0.05,-0.8 0,-1.5 0.25,-2.15 0.25,-0.3 0.5,-0.6 0.75,-0.95 0.45,-0.7 1.05,-1.25 1.8,-1.6 2.25,0 3.8,1.1 4.6,3.25 C 3.55,3.2 3.8,3.85 4,4.5 4.1,5.3 4.1,6.15 4.05,7 4,7.75 4,8.5 4.05,9.2 4,9.65 3.95,10.05 3.9,10.5 c 0,-0.05 0,-0.05 0.05,-0.05 0,0.05 0,0.05 0,0.1 C 3.8,11 3.65,11.45 3.4,11.9 3.35,12.05 3.25,12.15 3.15,12.3 3.1,12.6 3,12.9 2.85,13.2 L 2.825,13.175 2.85,13.15 C 4.1,11.7 4.7,10 4.55,8 4.5,8.05 4.5,8.15 4.5,8.2 4.5,8 4.5,7.8 4.5,7.6 4.55,7.4 4.55,7.2 4.55,7 4.6,5.95 4.5,4.95 4.25,4 c 0,-0.05 0,-0.05 0,-0.1 C 4.2,3.55 4.1,3.15 3.95,2.8 3.4,1 2.2,-0.2 0.45,-0.8 0.2,-0.85 -0.1,-0.85 -0.35,-0.9 z"
           inkscape:connector-curvature="0"
           style="fill:#663300" />
        <path
           id="path1"
           d="M 4,4.5 C 3.8,3.85 3.55,3.2 3.3,2.55 2.5,0.4 0.95,-0.7 -1.3,-0.7 -2.05,-0.35 -2.65,0.2 -3.1,0.9 -3.35,1.25 -3.6,1.55 -3.85,1.85 -4.1,2.5 -4.15,3.2 -4.1,4 c 0.05,0.6 0,1.2 -0.15,1.8 0,1.5 0.05,3 0.2,4.5 0,0.25 0.05,0.45 0.2,0.65 0.15,0.25 0.25,0.45 0.4,0.65 0.05,0.3 0.25,0.55 0.5,0.8 0,0.05 0,0.05 -0.05,0.1 0,0.05 0,0.05 0,0.1 0.25,0.2 0.45,0.4 0.7,0.65 0.25,0.15 0.5,0.25 0.75,0.4 l 0,-0.025 2.7,0.525 C 0.85,14 0.55,13.9 0.2,13.8 c 0.6,0 1.2,0 1.8,0 C 2.05,13.75 2.05,13.7 2,13.7 2.35,13.6 2.6,13.45 2.85,13.2 3,12.9 3.1,12.6 3.15,12.3 3.25,12.15 3.35,12.05 3.4,11.9 3.65,11.45 3.8,11 3.95,10.55 L 3.925,10.525 3.9,10.5 C 3.95,10.05 4,9.65 4.05,9.2 4,8.5 4,7.75 4.05,7 4.1,6.15 4.1,5.3 4,4.5 z"
           inkscape:connector-curvature="0"
           style="fill:#ffffcc" />
      </g>
      <animate
         attributeName="display"
         begin="0s"
         repeatCount="indefinite"
         dur="0.167s"
         keyTimes="0;0.399;1"
         values="inline;none;none"
         id="animate3365" />
    </g>
  </g>
</svg>

<?xml version="1.0" encoding="utf-8"?>
<!-- Generator: flash2svg, http://dissentgraphics.com/tools/flash2svg -->
<svg xmlns:xlink="http://www.w3.org/1999/xlink" id="Avatar" image-rendering="auto" baseProfile="basic" version="1.1" x="0px" y="0px" width="68" height="126" xmlns="http://www.w3.org/2000/svg" viewBox="0 0 68 126">
  <defs/>
  <g id="sideLegUpperOffside3" overflow="visible">
    <g id="sideLegUpperOffside2_4">
      <g id="element2">
        <path id="path6" fill="#FFC" d="M3.25,2.4 Q3.05,1.15 1.95,0.3 C0.9,-0.5 -0.25,-0.75 -1.55,-0.45 -1.8,-0.4 -2,-0.3 -2.2,-0.2 -2.25,-0.15 -2.35,-0.15 -2.4,-0.1 -2.55,0 -2.7,0.05 -2.85,0.1 -3.6,1.15 -3.95,2.3 -3.95,3.55 -3.95,3.95 -3.95,4.35 -3.95,4.7 -3.95,5.05 -4.05,5.35 -4.2,5.6 -4.2,5.85 -4.2,6.1 -4.2,6.35 -4.15,7.9 -4.05,9.45 -3.9,11 -3.9,11.1 -3.85,11.2 -3.8,11.3 -3.55,11.75 -3.2,12.2 -2.85,12.6 -2.8,12.75 -2.7,12.9 -2.6,13.1 -2.4,13.2 -2.2,13.3 -2,13.4 -2.05,13.35 -2.05,13.35 -2.1,13.35 -1.65,13.6 -1.2,13.8 -0.65,13.85 0.1,14 0.9,13.95 1.75,13.7 1.9,13.6 2.05,13.5 2.2,13.45 2.55,13.05 2.75,12.6 2.9,12.15 3.45,11.2 3.85,10.15 4.1,9.1 L4.075,9.075 L4,9.05 C3.95,8.2 4,7.35 4.05,6.5 4.1,5.8 4.05,5.1 4,4.35 3.75,3.7 3.55,3 3.35,2.3 3.3,2.35 3.3,2.35 3.25,2.4z"/>
        <path id="path7" fill="#630" d="M1.95,0.3 Q3.05,1.15 3.25,2.4 C3.3,2.35 3.3,2.35 3.35,2.3 3.55,3 3.75,3.7 4,4.35 4.05,5.1 4.1,5.8 4.05,6.5 4,7.35 3.95,8.2 4,9.05 4.35,8.15 4.5,7.2 4.5,6.25 4.5,4.6 4.15,3.05 3.4,1.7 3.35,1.55 3.25,1.35 3.15,1.2 2.7,0.45 2.1,-0.2 1.25,-0.65 0.8,-0.8 0.35,-0.9 -0.1,-0.95 -0.65,-1 -1.15,-0.9 -1.6,-0.7 L-1.625,-0.725 L-1.6,-0.75 C-1.7,-0.75 -1.8,-0.7 -1.95,-0.65 -2.3,-0.4 -2.7,-0.2 -3.1,-0.05 -3.45,0.4 -3.75,0.9 -3.9,1.45 -4.15,1.85 -4.25,2.3 -4.3,2.85 -4.5,4.45 -4.6,6.05 -4.65,7.7 -4.6,7.55 -4.5,7.45 -4.45,7.35 -4.5,7.7 -4.55,8.1 -4.6,8.45 -4.9,10.5 -4.25,12.05 -2.6,13.1 -2.7,12.9 -2.8,12.75 -2.85,12.6 -3.2,12.2 -3.55,11.75 -3.8,11.3 -3.85,11.2 -3.9,11.1 -3.9,11 -4.05,9.45 -4.15,7.9 -4.2,6.35 -4.2,6.1 -4.2,5.85 -4.2,5.6 -4.05,5.35 -3.95,5.05 -3.95,4.7 -3.95,4.35 -3.95,3.95 -3.95,3.55 -3.95,2.3 -3.6,1.15 -2.85,0.1 -2.7,0.05 -2.55,0 -2.4,-0.1 -2.35,-0.15 -2.25,-0.15 -2.2,-0.2 -2,-0.3 -1.8,-0.4 -1.55,-0.45 -0.25,-0.75 0.9,-0.5 1.95,0.3z M4.15,8.75 C4.1,8.85 4.1,8.95 4.1,9.1 3.85,10.15 3.45,11.2 2.9,12.15 2.75,12.6 2.55,13.05 2.2,13.45 2.4,13.3 2.6,13.15 2.75,13 3.4,12.45 3.85,11.7 4.05,10.85 3.9,11.1 3.7,11.35 3.55,11.6 4.2,10.3 4.6,8.9 4.65,7.35 4.6,7.3 4.6,7.3 4.6,7.25 4.6,7.2 4.6,7.1 4.55,7.05 4.4,7.55 4.3,8.1 4.15,8.75z"/>
      </g>
      <animate attributeName="display" begin="0s" repeatCount="indefinite" dur="0.167s" keyTimes="0;0.798;1" values="none;inline;none"/>
    </g>
    <g id="sideLegUpperOffside2_2">
      <g id="element1">
        <path id="path3" fill="#630" d="M0.6,-0.85 Q0.35,-0.85 0.1,-0.9 C-0.25,-0.95 -0.65,-0.95 -1.05,-0.85 -0.8,-0.95 -0.6,-1 -0.35,-1 -1.15,-1.15 -1.85,-1 -2.5,-0.5 -2.85,-0.2 -3.15,0.15 -3.4,0.5 -3.8,0.95 -4.05,1.5 -4.2,2.15 -4.4,3.4 -4.6,4.65 -4.75,5.95 -4.85,7 -4.8,7.95 -4.6,8.85 L-4.6,8.875 L-4.6,8.9 C-4.65,9.85 -4.4,10.8 -3.9,11.65 -3.5,12.3 -3.05,12.8 -2.5,13.15 -2.7,12.9 -2.9,12.6 -3.05,12.3 -3.4,11.95 -3.65,11.5 -3.8,11.05 -4.1,9.9 -4.3,8.75 -4.35,7.6 L-4.375,7.6 L-4.35,7.6 C-4.35,7.45 -4.35,7.35 -4.35,7.2 -4.35,6.5 -4.35,5.8 -4.35,5.15 -4.4,3.9 -4.2,2.7 -3.8,1.65 -3.8,1.65 -3.8,1.65 -3.75,1.6 -3.5,1.25 -3.2,0.9 -2.9,0.5 -2.55,-0.05 -2.1,-0.4 -1.55,-0.65 -1.25,-0.6 -0.9,-0.55 -0.5,-0.6 -0.2,-0.65 0.1,-0.6 0.45,-0.45 1.8,0.1 2.8,1.05 3.4,2.35 3.55,3 3.65,3.6 3.8,4.2 4.05,5.55 4.15,6.95 4.1,8.3 4.1,8.25 4.1,8.25 4.15,8.25 4.1,8.25 4.1,8.25 4.15,8.3 4.1,8.35 4.1,8.45 4.1,8.55 4.05,9.85 3.75,11 3.15,12.05 3.1,12.4 3.05,12.7 2.9,13.05 3.25,12.75 3.5,12.35 3.65,11.8 4.25,9.95 4.55,8.1 4.6,6.25 4.5,6.5 4.4,6.75 4.35,7 4.4,6.75 4.4,6.5 4.4,6.25 4.5,4.85 4.25,3.5 3.6,2.2 3.5,1.9 3.35,1.6 3.2,1.35 2.6,0.3 1.75,-0.4 0.6,-0.85z"/>
        <path id="path4" fill="#FFC" d="M3.8,4.2 C3.65,3.6 3.55,3 3.4,2.35 2.8,1.05 1.8,0.1 0.45,-0.45 0.1,-0.6 -0.2,-0.65 -0.5,-0.6 -0.9,-0.55 -1.25,-0.6 -1.55,-0.65 -2.1,-0.4 -2.55,-0.05 -2.9,0.5 -3.2,0.9 -3.5,1.25 -3.75,1.6 -3.8,1.65 -3.8,1.65 -3.8,1.65 -4.2,2.7 -4.4,3.9 -4.35,5.15 -4.35,5.8 -4.35,6.5 -4.35,7.2 -4.35,7.35 -4.35,7.45 -4.35,7.6 L-4.375,7.6 L-4.35,7.6 C-4.3,8.75 -4.1,9.9 -3.8,11.05 -3.65,11.5 -3.4,11.95 -3.05,12.3 -2.9,12.6 -2.7,12.9 -2.5,13.15 -2.1,13.4 -1.65,13.55 -1.2,13.65 -0.65,13.9 -0.05,14 0.6,14.05 1.65,14.1 2.35,13.8 2.8,13.15 2.8,13.1 2.85,13.1 2.9,13.05 3.05,12.7 3.1,12.4 3.15,12.05 3.75,11 4.05,9.85 4.1,8.55 4.1,8.45 4.1,8.35 4.15,8.3 L4.125,8.3 L4.1,8.3 C4.15,6.95 4.05,5.55 3.8,4.2z"/>
      </g>
      <animate attributeName="display" begin="0s" repeatCount="indefinite" dur="0.167s" keyTimes="0;0.399;0.798;1" values="none;inline;none;none"/>
    </g>
    <g id="sideLegUpperOffside2_0">
      <g id="element">
        <path id="path" fill="#630" d="M-0.35,-0.9 Q-1.2,-0.9 -1.9,-0.7 C-1.85,-0.7 -1.75,-0.7 -1.7,-0.7 -2,-0.6 -2.25,-0.45 -2.5,-0.3 -2.75,-0.1 -2.95,0.1 -3.15,0.35 -3.7,0.6 -4.05,1.05 -4.2,1.75 -4.45,2.7 -4.5,3.65 -4.45,4.55 -4.5,4.8 -4.5,5.1 -4.55,5.45 -4.6,6 -4.65,6.6 -4.7,7.25 -4.75,8.7 -4.55,10.05 -4.05,11.3 -4,11.35 -4,11.4 -4,11.45 -4.15,11.2 -4.3,10.9 -4.45,10.6 -4.55,10.9 -4.45,11.25 -4.15,11.65 -3.4,12.55 -2.55,13.2 -1.55,13.65 -1.8,13.5 -2.05,13.4 -2.3,13.25 -2.55,13 -2.75,12.8 -3,12.6 -3,12.55 -3,12.55 -3,12.5 -2.95,12.45 -2.95,12.45 -2.95,12.4 -3.2,12.15 -3.4,11.9 -3.45,11.6 -3.6,11.4 -3.7,11.2 -3.85,10.95 -4,10.75 -4.05,10.55 -4.05,10.3 -4.2,8.8 -4.25,7.3 -4.25,5.8 -4.1,5.2 -4.05,4.6 -4.1,4 -4.15,3.2 -4.1,2.5 -3.85,1.85 -3.6,1.55 -3.35,1.25 -3.1,0.9 -2.65,0.2 -2.05,-0.35 -1.3,-0.7 0.95,-0.7 2.5,0.4 3.3,2.55 3.55,3.2 3.8,3.85 4,4.5 4.1,5.3 4.1,6.15 4.05,7 4,7.75 4,8.5 4.05,9.2 4,9.65 3.95,10.05 3.9,10.5 3.9,10.45 3.9,10.45 3.95,10.45 3.95,10.5 3.95,10.5 3.95,10.55 3.8,11 3.65,11.45 3.4,11.9 3.35,12.05 3.25,12.15 3.15,12.3 3.1,12.6 3,12.9 2.85,13.2 L2.825,13.175 L2.85,13.15 C4.1,11.7 4.7,10 4.55,8 4.5,8.05 4.5,8.15 4.5,8.2 4.5,8 4.5,7.8 4.5,7.6 4.55,7.4 4.55,7.2 4.55,7 4.6,5.95 4.5,4.95 4.25,4 4.25,3.95 4.25,3.95 4.25,3.9 4.2,3.55 4.1,3.15 3.95,2.8 3.4,1 2.2,-0.2 0.45,-0.8 0.2,-0.85 -0.1,-0.85 -0.35,-0.9z"/>
        <path id="path1" fill="#FFC" d="M4,4.5 C3.8,3.85 3.55,3.2 3.3,2.55 2.5,0.4 0.95,-0.7 -1.3,-0.7 -2.05,-0.35 -2.65,0.2 -3.1,0.9 -3.35,1.25 -3.6,1.55 -3.85,1.85 -4.1,2.5 -4.15,3.2 -4.1,4 -4.05,4.6 -4.1,5.2 -4.25,5.8 -4.25,7.3 -4.2,8.8 -4.05,10.3 -4.05,10.55 -4,10.75 -3.85,10.95 -3.7,11.2 -3.6,11.4 -3.45,11.6 -3.4,11.9 -3.2,12.15 -2.95,12.4 -2.95,12.45 -2.95,12.45 -3,12.5 -3,12.55 -3,12.55 -3,12.6 -2.75,12.8 -2.55,13 -2.3,13.25 -2.05,13.4 -1.8,13.5 -1.55,13.65 L-1.55,13.625 L1.15,14.15 C0.85,14 0.55,13.9 0.2,13.8 0.8,13.8 1.4,13.8 2,13.8 2.05,13.75 2.05,13.7 2,13.7 2.35,13.6 2.6,13.45 2.85,13.2 3,12.9 3.1,12.6 3.15,12.3 3.25,12.15 3.35,12.05 3.4,11.9 3.65,11.45 3.8,11 3.95,10.55 L3.925,10.525 L3.9,10.5 C3.95,10.05 4,9.65 4.05,9.2 4,8.5 4,7.75 4.05,7 4.1,6.15 4.1,5.3 4,4.5z"/>
      </g>
      <animate attributeName="display" begin="0s" repeatCount="indefinite" dur="0.167s" keyTimes="0;0.399;1" values="inline;none;none"/>
    </g>
  </g>
</svg>
